app/[lang]/(home)/(new-home)/assets/ide-icons/vscode.svg

<svg
  width="64"
  height="64"
  viewBox="0 0 64 64"
  fill="none"
  xmlns="http://www.w3.org/2000/svg"
>
  <path
    d="M46.0383 7.27352L55.7494 12.0242C57.2201 12.7751 57.4241 13.3162 57.4241 14.0939L57.4668 49.8573C57.4668 50.8115 56.951 51.1869 55.5295 51.9878L46.0745 56.7268C45.6802 56.9106 45.3648 57.1341 43.0029 57.1341C43.0029 57.1341 45.0472 57.1515 45.0472 55.518V8.68852C45.0588 8.22205 44.8865 7.76974 44.5675 7.42921C44.2485 7.08868 43.8084 6.88726 43.3421 6.86841C45.4364 6.86841 46.0383 7.27352 46.0383 7.27352Z"
    fill="#4B9AE9"
  />
  <path
    d="M7.50273 39.137C7.16368 39.5156 6.9762 40.0059 6.9762 40.514C6.9762 41.0222 7.16368 41.5125 7.50273 41.8911C7.50273 41.8911 9.98332 44.1959 10.7147 44.8571C11.4461 45.5183 12.5305 45.2188 13.2329 44.6892C13.9353 44.1597 45.0443 20.4122 45.0443 20.4122V8.68852C45.0576 8.22158 44.8859 7.76831 44.5665 7.4274C44.2472 7.0865 43.806 6.88558 43.3392 6.86841C43.0107 6.87835 42.6985 7.01434 42.4675 7.2482L7.50273 39.137Z"
    fill="#2A63A4"
  />
  <path
    d="M10.7226 19.2657C11.0286 18.9656 11.4402 18.7975 11.8688 18.7975C12.2975 18.7975 12.7091 18.9656 13.0151 19.2657L45.0479 43.5406V55.5189C45.0479 57.1618 43.0006 57.1321 43.0006 57.1321C42.7241 57.0889 42.4713 56.9505 42.2859 56.7408L7.26106 24.6581C6.96557 24.3625 6.79957 23.9616 6.79957 23.5437C6.79957 23.1257 6.96557 22.7248 7.26106 22.4292L10.7226 19.2657Z"
    fill="#3478C6"
  />
</svg>

<svg xmlns="http://www.w3.org/2000/svg" fill="none" viewBox="0 0 64 64">
  <path
    fill="#4B9AE9"
    d="m46.04 7.27 9.7 4.75c1.48.76 1.68 1.3 1.68 2.07l.05 35.77c0 .95-.52 1.33-1.94 2.13l-9.46 4.74c-.39.18-.7.4-3.07.4 0 0 2.05.02 2.05-1.61V8.69a1.78 1.78 0 0 0-1.7-1.82c2.09 0 2.69.4 2.69.4Z"
  />
  <path
    fill="#2A63A4"
    d="M7.5 39.14a2.06 2.06 0 0 0 0 2.75l3.21 2.97c.74.66 1.82.36 2.52-.17L45.04 20.4V8.7a1.77 1.77 0 0 0-1.7-1.82c-.33 0-.64.14-.87.38L7.5 39.14Z"
  />
  <path
    fill="#3478C6"
    d="M10.72 19.27a1.64 1.64 0 0 1 2.3 0l32.03 24.27v11.98c0 1.64-2.05 1.61-2.05 1.61a1.2 1.2 0 0 1-.71-.39L7.26 24.66a1.58 1.58 0 0 1 0-2.23l3.46-3.16Z"
  />
</svg>
